images/decoration.svg

<svg width="487" height="454" viewBox="0 0 487 454" fill="none" xmlns="http://www.w3.org/2000/svg">
<g id="Group 17">
<path id="Path 3" fill-rule="evenodd" clip-rule="evenodd" d="M238.03 23.5132C185.353 7.01158 131.189 -20.5118 75.7356 29.7601C20.2827 80.032 -14.5801 124.07 7.93327 181.049C30.4467 238.029 122.344 202.538 149.046 253.465C175.747 304.391 117.078 350.61 142.372 395.934C167.665 441.258 187.114 470.307 268.399 441.488C349.684 412.67 342.189 339.343 404.002 296.404C465.816 253.465 532.694 189.183 440.914 74.4804C349.134 -40.2218 290.707 40.0148 238.03 23.5132Z" stroke="#96A9C6"/>
<path id="Path 3 Copy" fill-rule="evenodd" clip-rule="evenodd" d="M245.045 50.2795C202.143 36.8811 158.03 14.5336 112.867 55.3517C67.7045 96.1698 39.311 131.926 57.6467 178.19C75.9824 224.455 150.827 195.639 172.573 236.988C194.32 278.337 146.538 315.865 167.138 352.665C187.737 389.466 203.577 413.052 269.778 389.653C335.979 366.254 329.876 306.716 380.218 271.852C430.561 236.988 485.029 184.794 410.28 91.6622C335.532 -1.4699 287.947 63.678 245.045 50.2795Z" stroke="#96A9C6"/>
<path id="Path 3 Copy 2" fill-rule="evenodd" clip-rule="evenodd" d="M257.391 67.8926C222.635 56.9767 186.898 38.7699 150.31 72.0249C113.723 105.28 90.7203 134.411 105.575 172.103C120.429 209.796 181.062 186.319 198.68 220.006C216.297 253.694 177.588 284.269 194.276 314.251C210.965 344.233 223.797 363.448 277.428 344.385C331.059 325.321 326.114 276.815 366.898 248.411C407.683 220.006 451.808 177.484 391.253 101.608C330.697 25.7316 292.147 78.8085 257.391 67.8926Z" stroke="#96A9C6"/>
<path id="Path 3 Copy 5" fill-rule="evenodd" clip-rule="evenodd" d="M270.09 89.9539C242.068 81.192 213.255 66.5778 183.756 93.2709C154.258 119.964 135.712 143.347 147.688 173.601C159.664 203.856 208.55 185.012 222.754 212.052C236.958 239.092 205.749 263.634 219.204 287.699C232.659 311.765 243.005 327.189 286.245 311.887C329.485 296.586 325.499 257.651 358.381 234.852C391.263 212.052 426.839 177.92 378.016 117.016C329.193 56.1123 298.112 98.7158 270.09 89.9539Z" stroke="#96A9C6"/>
<path id="Path 3 Copy 4" fill-rule="evenodd" clip-rule="evenodd" d="M273.12 103.762C250.203 96.6068 226.639 84.6719 202.514 106.471C178.389 128.271 163.222 147.367 173.016 172.074C182.811 196.782 222.791 181.393 234.407 203.476C246.024 225.559 220.5 245.601 231.504 265.255C242.508 284.908 250.969 297.505 286.332 285.008C321.695 272.512 318.435 240.715 345.327 222.095C372.219 203.476 401.314 175.601 361.385 125.863C321.456 76.1251 296.037 110.918 273.12 103.762Z" stroke="#96A9C6"/>
<path id="Path 3 Copy 3" fill-rule="evenodd" clip-rule="evenodd" d="M279.571 113.919C260.999 108.115 241.902 98.4328 222.35 116.117C202.799 133.801 190.507 149.292 198.445 169.336C206.382 189.38 238.783 176.895 248.198 194.809C257.612 212.724 236.927 228.982 245.844 244.926C254.762 260.87 261.619 271.088 290.279 260.95C318.938 250.813 316.296 225.019 338.089 209.914C359.883 194.809 383.463 172.197 351.104 131.848C318.744 91.4994 298.144 119.724 279.571 113.919Z" stroke="#96A9C6"/>
</g>
</svg>

<svg xmlns="http://www.w3.org/2000/svg" width="487" height="454" fill="none"><g stroke="#96A9C6" clip-rule="evenodd"><path d="M238.03 23.513C185.353 7.012 131.189-20.512 75.736 29.76 20.283 80.032-14.58 124.07 7.933 181.05c22.514 56.98 114.411 21.489 141.113 72.416 26.701 50.926-31.968 97.145-6.674 142.469 25.293 45.324 44.742 74.373 126.027 45.554 81.285-28.818 73.79-102.145 135.603-145.084 61.814-42.939 128.692-107.221 36.912-221.924-91.78-114.702-150.207-34.465-202.884-50.967Z"/><path d="M245.045 50.28c-42.902-13.399-87.015-35.746-132.178 5.072-45.163 40.818-73.556 76.574-55.22 122.838 18.335 46.265 93.18 17.449 114.926 58.798 21.747 41.349-26.035 78.877-5.435 115.677 20.599 36.801 36.439 60.387 102.64 36.988s60.098-82.937 110.44-117.801c50.343-34.864 104.811-87.058 30.062-180.19C335.532-1.47 287.947 63.678 245.045 50.28Z"/><path d="M257.391 67.893c-34.756-10.916-70.493-29.123-107.081 4.132-36.587 33.255-59.59 62.386-44.735 100.078 14.854 37.693 75.487 14.216 93.105 47.903 17.617 33.688-21.092 64.263-4.404 94.245 16.689 29.982 29.521 49.197 83.152 30.134 53.631-19.064 48.686-67.57 89.47-95.974 40.785-28.405 84.91-70.927 24.355-146.803-60.556-75.876-99.106-22.8-133.862-33.715Z"/><path d="M270.09 89.954c-28.022-8.762-56.835-23.376-86.334 3.317-29.498 26.693-48.044 50.076-36.068 80.33 11.976 30.255 60.862 11.411 75.066 38.451s-17.005 51.582-3.55 75.647c13.455 24.066 23.801 39.49 67.041 24.188 43.24-15.301 39.254-54.236 72.136-77.035 32.882-22.8 68.458-56.932 19.635-117.836-48.823-60.904-79.904-18.3-107.926-27.062Z"/><path d="M273.12 103.762c-22.917-7.155-46.481-19.09-70.606 2.709-24.125 21.8-39.292 40.896-29.498 65.603 9.795 24.708 49.775 9.319 61.391 31.402 11.617 22.083-13.907 42.125-2.903 61.779 11.004 19.653 19.465 32.25 54.828 19.753 35.363-12.496 32.103-44.293 58.995-62.913 26.892-18.619 55.987-46.494 16.058-96.232s-65.348-14.945-88.265-22.101Z"/><path d="M279.571 113.919c-18.572-5.804-37.669-15.486-57.221 2.198-19.551 17.684-31.843 33.175-23.905 53.219 7.937 20.044 40.338 7.559 49.753 25.473 9.414 17.915-11.271 34.173-2.354 50.117 8.918 15.944 15.775 26.162 44.435 16.024 28.659-10.137 26.017-35.931 47.81-51.036 21.794-15.105 45.374-37.717 13.015-78.066-32.36-40.349-52.96-12.124-71.533-17.929Z"/></g></svg>
